austria/municipalities/40611.svg

<?xml version="1.0" encoding="UTF-8"?>
<!DOCTYPE svg PUBLIC "-//W3C//DTD SVG 1.1//EN" "http://www.w3.org/Graphics/SVG/1.1/DTD/svg11.dtd">
<svg xmlns="http://www.w3.org/2000/svg" version="1.1" width="166px" height="207px" style="shape-rendering:geometricPrecision; text-rendering:geometricPrecision; image-rendering:optimizeQuality; fill-rule:evenodd; clip-rule:evenodd" xmlns:xlink="http://www.w3.org/1999/xlink">
<g><path style="opacity:1" fill="#000000" d="M -0.5,-0.5 C 54.8333,-0.5 110.167,-0.5 165.5,-0.5C 165.5,44.1667 165.5,88.8333 165.5,133.5C 157.503,172.498 134.169,196.831 95.5,206.5C 86.8333,206.5 78.1667,206.5 69.5,206.5C 29.593,196.928 6.25968,171.928 -0.5,131.5C -0.5,87.5 -0.5,43.5 -0.5,-0.5 Z"/></g>
<g><path style="opacity:1" fill="#fefffe" d="M 59.5,154.5 C 60.7358,152.957 62.4024,151.957 64.5,151.5C 65.5827,150.635 65.7494,149.635 65,148.5C 63.8855,147 63.0521,145.333 62.5,143.5C 60.8208,142.218 58.9874,141.218 57,140.5C 56.5983,135.265 53.7649,132.599 48.5,132.5C 47.6496,124.514 48.983,117.014 52.5,110C 49.3319,106.074 46.9986,101.907 45.5,97.5C 44.4324,98.4345 43.099,98.7678 41.5,98.5C 41.7852,100.288 41.4519,101.955 40.5,103.5C 37.5007,104.663 35.834,106.83 35.5,110C 37.5646,113.38 38.8979,117.047 39.5,121C 39.4263,124.942 38.7597,128.776 37.5,132.5C 34.5,134 31.5,135.5 28.5,137C 27.2975,139.905 25.9641,142.738 24.5,145.5C 22.4086,145.318 20.4086,145.652 18.5,146.5C 16.3865,151.06 14.5531,155.726 13,160.5C 8.32066,152.14 5.32066,143.14 4,133.5C 3.50001,90.1679 3.33334,46.8346 3.5,3.5C 29.1667,3.5 54.8333,3.5 80.5,3.5C 80.6667,57.8344 80.5,112.168 80,166.5C 78.0448,165.547 76.3782,164.213 75,162.5C 74.7822,159.574 74.2822,156.74 73.5,154C 71.6494,153.163 69.8161,152.329 68,151.5C 65.3103,152.929 62.4769,153.929 59.5,154.5 Z"/></g>
<g><path style="opacity:1" fill="#006632" d="M 84.5,3.5 C 110.167,3.5 135.833,3.5 161.5,3.5C 161.667,47.8346 161.5,92.1679 161,136.5C 151.654,177.353 126.154,199.353 84.5,202.5C 84.5,136.167 84.5,69.8333 84.5,3.5 Z"/></g>
<g><path style="opacity:1" fill="#000000" d="M 118.5,63.5 C 120.253,66.1461 121.253,69.1461 121.5,72.5C 120.448,72.3505 119.448,72.5172 118.5,73C 120.525,78.0743 122.359,83.241 124,88.5C 125.807,83.9395 127.307,79.2728 128.5,74.5C 127.963,73.2588 127.296,72.0921 126.5,71C 128.957,62.9625 131.624,55.1291 134.5,47.5C 134.117,51.3193 133.117,54.986 131.5,58.5C 134.51,60.2567 137.677,61.59 141,62.5C 144.692,53.0936 148.192,43.5936 151.5,34C 148.099,32.3094 144.599,30.8094 141,29.5C 140.626,31.4913 139.793,33.158 138.5,34.5C 139.229,28.3822 142.062,23.3822 147,19.5C 146.747,16.867 146.747,14.2004 147,11.5C 148.808,9.60407 150.975,9.10407 153.5,10C 156.255,13.3074 156.089,16.4741 153,19.5C 152.781,24.5152 152.781,29.5152 153,34.5C 148.496,48.0109 143.996,61.5109 139.5,75C 138.167,75.6667 136.833,76.3333 135.5,77C 133.096,85.1289 130.429,93.1289 127.5,101C 133.601,121.531 140.267,141.864 147.5,162C 145.351,163.164 143.185,164.33 141,165.5C 135.333,148.167 129.667,130.833 124,113.5C 118.535,130.896 112.868,148.229 107,165.5C 104.635,164.711 102.468,163.544 100.5,162C 105.774,146.368 111.107,130.868 116.5,115.5C 112.439,131.017 107.772,146.35 102.5,161.5C 103.833,162.833 105.167,162.833 106.5,161.5C 112.091,144.298 117.758,127.131 123.5,110C 122.718,107.328 121.718,104.828 120.5,102.5C 118.267,93.2285 115.267,84.2285 111.5,75.5C 109.833,77.1667 108.833,76.8333 108.5,74.5C 104.044,61.9224 99.8769,49.2557 96,36.5C 95.6667,30.8333 95.3333,25.1667 95,19.5C 90.2625,15.3253 90.7625,11.9919 96.5,9.5C 98.374,9.38977 99.874,10.0564 101,11.5C 101.711,13.8991 101.544,16.2324 100.5,18.5C 103.547,21.5448 106.213,24.8781 108.5,28.5C 112.611,39.9454 115.945,51.6121 118.5,63.5 Z"/></g>
<g><path style="opacity:1" fill="#fefffe" d="M 95.5,10.5 C 100.289,12.1998 100.622,14.5332 96.5,17.5C 92.9667,15.5798 92.6334,13.2465 95.5,10.5 Z"/></g>
<g><path style="opacity:1" fill="#fefffe" d="M 150.5,10.5 C 154.211,12.5416 154.378,14.875 151,17.5C 146.547,15.3451 146.38,13.0118 150.5,10.5 Z"/></g>
<g><path style="opacity:1" fill="#000000" d="M 45.5,97.5 C 43.5165,97.6168 41.8498,96.9501 40.5,95.5C 39.787,92.633 38.4536,90.133 36.5,88C 36.9541,86.3783 37.9541,85.2116 39.5,84.5C 40.497,77.5316 40.8303,70.5316 40.5,63.5C 35.1563,63.334 29.8229,63.5006 24.5,64C 23.0031,66.207 21.0031,66.8736 18.5,66C 16.5516,65.0168 14.7183,63.8502 13,62.5C 12.4054,61.1011 12.5721,59.7678 13.5,58.5C 16.0691,57.3881 18.4025,56.0547 20.5,54.5C 23.1895,54.5454 24.5228,55.8787 24.5,58.5C 29.8333,58.5 35.1667,58.5 40.5,58.5C 40.5,53.1667 40.5,47.8333 40.5,42.5C 36.4454,42.1758 32.4454,42.5091 28.5,43.5C 27.8291,44.9458 26.6624,45.6125 25,45.5C 15.0803,42.1157 15.0803,38.4491 25,34.5C 26.6624,34.3875 27.8291,35.0542 28.5,36.5C 32.4454,37.4909 36.4454,37.8242 40.5,37.5C 41.2517,31.7408 40.2517,26.4075 37.5,21.5C 41.8988,9.72578 46.5655,9.55911 51.5,21C 51.0505,23.283 49.7172,24.783 47.5,25.5C 46.5091,29.4454 46.1758,33.4454 46.5,37.5C 51.1785,37.6658 55.8452,37.4992 60.5,37C 61.672,34.9451 63.3386,34.2784 65.5,35C 66.8168,36.6591 68.4835,37.8257 70.5,38.5C 71.6139,39.723 71.7805,41.0563 71,42.5C 68.656,44.1813 66.3227,45.848 64,47.5C 61.46,46.7935 60.2933,45.1268 60.5,42.5C 55.8333,42.5 51.1667,42.5 46.5,42.5C 46.5,47.8333 46.5,53.1667 46.5,58.5C 53.9346,59.2354 60.9346,58.2354 67.5,55.5C 78.1667,59.5 78.1667,63.5 67.5,67.5C 65.6031,67.2718 64.2697,66.2718 63.5,64.5C 57.8722,63.5046 52.2055,63.1712 46.5,63.5C 46.1697,70.5316 46.503,77.5316 47.5,84.5C 49.2718,85.2697 50.2718,86.6031 50.5,88.5C 48.6456,91.3973 46.9789,94.3973 45.5,97.5 Z"/></g>
<g><path style="opacity:1" fill="#fefffe" d="M 97.5,19.5 C 99.0174,19.5106 100.184,20.1772 101,21.5C 102.377,23.7538 103.877,25.9205 105.5,28C 102.794,29.5475 99.9603,30.7142 97,31.5C 96.8297,27.5066 96.9963,23.5066 97.5,19.5 Z"/></g>
<g><path style="opacity:1" fill="#fefffe" d="M 148.5,19.5 C 149.693,19.9704 150.36,20.9704 150.5,22.5C 151.332,25.4818 151.499,28.4818 151,31.5C 148.04,30.7142 145.206,29.5475 142.5,28C 144.72,25.2872 146.72,22.4539 148.5,19.5 Z"/></g>
<g><path style="opacity:1" fill="#fefffe" d="M 106.5,29.5 C 109.802,39.0689 113.135,48.7355 116.5,58.5C 113.144,60.8742 109.644,61.8742 106,61.5C 102.446,52.0074 99.6122,42.3407 97.5,32.5C 100.67,31.7345 103.67,30.7345 106.5,29.5 Z"/></g>
<g><path style="opacity:1" fill="#fefffe" d="M 134.5,47.5 C 136.163,45.5615 136.829,43.2282 136.5,40.5C 138.074,38.8984 138.741,36.8984 138.5,34.5C 139.793,33.158 140.626,31.4913 141,29.5C 144.599,30.8094 148.099,32.3094 151.5,34C 148.192,43.5936 144.692,53.0936 141,62.5C 137.677,61.59 134.51,60.2567 131.5,58.5C 133.117,54.986 134.117,51.3193 134.5,47.5 Z"/></g>
<g><path style="opacity:1" fill="#000000" d="M 138.5,34.5 C 138.741,36.8984 138.074,38.8984 136.5,40.5C 136.259,38.1016 136.926,36.1016 138.5,34.5 Z"/></g>
<g><path style="opacity:1" fill="#000000" d="M 136.5,40.5 C 136.829,43.2282 136.163,45.5615 134.5,47.5C 134.41,44.8478 135.076,42.5145 136.5,40.5 Z"/></g>
<g><path style="opacity:1" fill="#fefffe" d="M 118.5,63.5 C 118.833,66.1667 119.167,68.8333 119.5,71.5C 116.797,71.9555 114.13,72.6221 111.5,73.5C 110.833,73.1667 110.167,72.8333 109.5,72.5C 108.593,69.9433 107.593,67.4433 106.5,65C 109.401,63.6864 112.401,62.5197 115.5,61.5C 116.739,61.9424 117.739,62.6091 118.5,63.5 Z"/></g>
<g><path style="opacity:1" fill="#fefffe" d="M 130.5,61.5 C 133.833,62.1667 137.167,62.8333 140.5,63.5C 140.041,66.8774 139.374,70.2107 138.5,73.5C 134.778,72.9834 131.112,72.15 127.5,71C 129.002,67.9953 130.002,64.8286 130.5,61.5 Z"/></g>
<g><path style="opacity:1" fill="#fefffe" d="M 116.5,73.5 C 122.567,90.6609 128.4,107.994 134,125.5C 137.814,137.77 141.314,150.104 144.5,162.5C 143.178,162.67 142.011,162.337 141,161.5C 131.97,132.611 122.803,103.777 113.5,75C 114.737,74.7679 115.737,74.2679 116.5,73.5 Z"/></g>
<g><path style="opacity:1" fill="#fefffe" d="M 130.5,73.5 C 131.901,73.9709 133.234,74.6376 134.5,75.5C 131.901,82.7961 129.401,90.1294 127,97.5C 126.443,95.3853 125.609,93.3853 124.5,91.5C 126.705,85.5504 128.705,79.5504 130.5,73.5 Z"/></g>
<g><path style="opacity:1" fill="#000000" d="M 45.5,97.5 C 46.9986,101.907 49.3319,106.074 52.5,110C 48.983,117.014 47.6496,124.514 48.5,132.5C 53.7649,132.599 56.5983,135.265 57,140.5C 58.9874,141.218 60.8208,142.218 62.5,143.5C 63.0521,145.333 63.8855,147 65,148.5C 65.7494,149.635 65.5827,150.635 64.5,151.5C 62.4024,151.957 60.7358,152.957 59.5,154.5C 56.3918,154.375 54.3918,155.708 53.5,158.5C 50.4208,161.65 48.0875,165.317 46.5,169.5C 45.5178,170.141 44.5178,170.807 43.5,171.5C 42.7124,170.23 41.7124,169.23 40.5,168.5C 40.573,166.973 39.9063,165.973 38.5,165.5C 38.7709,163.62 38.1042,162.287 36.5,161.5C 36.6309,160.624 36.2975,159.957 35.5,159.5C 32.8437,159.04 30.5104,158.04 28.5,156.5C 27.9751,152.467 26.6418,148.8 24.5,145.5C 25.9641,142.738 27.2975,139.905 28.5,137C 31.5,135.5 34.5,134 37.5,132.5C 38.7597,128.776 39.4263,124.942 39.5,121C 38.8979,117.047 37.5646,113.38 35.5,110C 35.834,106.83 37.5007,104.663 40.5,103.5C 41.4519,101.955 41.7852,100.288 41.5,98.5C 43.099,98.7678 44.4324,98.4345 45.5,97.5 Z"/></g>
<g><path style="opacity:1" fill="#000000" d="M 120.5,102.5 C 119.939,107.176 118.606,111.509 116.5,115.5C 117.061,110.824 118.394,106.491 120.5,102.5 Z"/></g>
<g><path style="opacity:1" fill="#fefffe" d="M 120.5,102.5 C 121.718,104.828 122.718,107.328 123.5,110C 117.758,127.131 112.091,144.298 106.5,161.5C 105.167,162.833 103.833,162.833 102.5,161.5C 107.772,146.35 112.439,131.017 116.5,115.5C 118.606,111.509 119.939,107.176 120.5,102.5 Z"/></g>
<g><path style="opacity:1" fill="#fefffe" d="M -0.5,131.5 C 6.25968,171.928 29.593,196.928 69.5,206.5C 46.1667,206.5 22.8333,206.5 -0.5,206.5C -0.5,181.5 -0.5,156.5 -0.5,131.5 Z"/></g>
<g><path style="opacity:1" fill="#fefffe" d="M 165.5,133.5 C 165.5,157.833 165.5,182.167 165.5,206.5C 142.167,206.5 118.833,206.5 95.5,206.5C 134.169,196.831 157.503,172.498 165.5,133.5 Z"/></g>
<g><path style="opacity:1" fill="#fefffe" d="M 24.5,145.5 C 26.6418,148.8 27.9751,152.467 28.5,156.5C 26.3987,153.203 25.0653,149.537 24.5,145.5 Z"/></g>
<g><path style="opacity:1" fill="#fefffe" d="M 59.5,154.5 C 57.678,156.01 55.678,157.343 53.5,158.5C 54.3918,155.708 56.3918,154.375 59.5,154.5 Z"/></g>
<g><path style="opacity:1" fill="#fefffe" d="M 28.5,156.5 C 30.5104,158.04 32.8437,159.04 35.5,159.5C 36.2975,159.957 36.6309,160.624 36.5,161.5C 34.1964,160.837 31.8631,160.17 29.5,159.5C 28.6143,158.675 28.281,157.675 28.5,156.5 Z"/></g>
<g><path style="opacity:1" fill="#fefffe" d="M 53.5,158.5 C 51.9125,162.683 49.5792,166.35 46.5,169.5C 48.0875,165.317 50.4208,161.65 53.5,158.5 Z"/></g>
<g><path style="opacity:1" fill="#fefffe" d="M 36.5,161.5 C 38.1042,162.287 38.7709,163.62 38.5,165.5C 37.3263,164.486 36.6596,163.153 36.5,161.5 Z"/></g>
<g><path style="opacity:1" fill="#fefffe" d="M 38.5,165.5 C 39.9063,165.973 40.573,166.973 40.5,168.5C 39.0937,168.027 38.427,167.027 38.5,165.5 Z"/></g>
<g><path style="opacity:1" fill="#fefffe" d="M 40.5,168.5 C 41.7124,169.23 42.7124,170.23 43.5,171.5C 44.5178,170.807 45.5178,170.141 46.5,169.5C 43.9343,174.911 41.9343,174.578 40.5,168.5 Z"/></g>
<g><path style="opacity:1" fill="#fefffe" d="M 56.5,183.5 C 55.0858,181.133 53.7525,178.633 52.5,176C 50.6079,175.027 48.6079,174.36 46.5,174C 48.8333,173.333 51.1667,173.333 53.5,174C 55.2226,176.943 56.2226,180.11 56.5,183.5 Z"/></g>
<g><path style="opacity:1" fill="#fefffe" d="M 56.5,183.5 C 57.9313,184.78 58.5979,186.447 58.5,188.5C 57.0687,187.22 56.4021,185.553 56.5,183.5 Z"/></g>
<g><path style="opacity:1" fill="#fefffe" d="M 58.5,188.5 C 60.8475,192.193 62.3475,196.193 63,200.5C 60.6151,196.847 59.1151,192.847 58.5,188.5 Z"/></g>
</svg>

<svg xmlns="http://www.w3.org/2000/svg" width="166" height="207" style="shape-rendering:geometricPrecision;text-rendering:geometricPrecision;image-rendering:optimizeQuality;fill-rule:evenodd;clip-rule:evenodd"><path style="opacity:1" d="M-.5-.5h166v134c-7.997 38.998-31.331 63.331-70 73h-26c-39.907-9.572-63.24-34.572-70-75V-.5z"/><path style="opacity:1" fill="#fefffe" d="M59.5 154.5c1.236-1.543 2.902-2.543 5-3 1.083-.865 1.25-1.865.5-3a16.1 16.1 0 0 1-2.5-5 20.477 20.477 0 0 0-5.5-3c-.402-5.235-3.235-7.901-8.5-8-.85-7.986.483-15.486 4-22.5-3.168-3.926-5.501-8.093-7-12.5-1.068.934-2.401 1.268-4 1 .285 1.788-.048 3.455-1 5-3 1.163-4.666 3.33-5 6.5a29.376 29.376 0 0 1 4 11 37.89 37.89 0 0 1-2 11.5l-9 4.5a98.905 98.905 0 0 1-4 8.5 11.987 11.987 0 0 0-6 1 125.84 125.84 0 0 0-5.5 14c-4.68-8.36-7.68-17.36-9-27-.5-43.332-.667-86.665-.5-130h77c.167 54.334 0 108.668-.5 163a14.506 14.506 0 0 1-5-4 42.332 42.332 0 0 0-1.5-8.5c-1.85-.837-3.684-1.671-5.5-2.5a30.107 30.107 0 0 1-8.5 3z"/><path style="opacity:1" fill="#006632" d="M84.5 3.5h77c.167 44.335 0 88.668-.5 133-9.346 40.853-34.846 62.853-76.5 66V3.5z"/><path style="opacity:1" d="M118.5 63.5c1.753 2.646 2.753 5.646 3 9a4.932 4.932 0 0 0-3 .5 212.908 212.908 0 0 1 5.5 15.5 111.103 111.103 0 0 0 4.5-14 18.181 18.181 0 0 0-2-3.5 388.933 388.933 0 0 1 8-23.5 34.336 34.336 0 0 1-3 11 39.442 39.442 0 0 0 9.5 4A723.54 723.54 0 0 0 151.5 34a101.627 101.627 0 0 0-10.5-4.5c-.374 1.991-1.207 3.658-2.5 5 .729-6.118 3.562-11.118 8.5-15a42.254 42.254 0 0 1 0-8c1.808-1.896 3.975-2.396 6.5-1.5 2.755 3.307 2.589 6.474-.5 9.5a171.315 171.315 0 0 0 0 15L139.5 75l-4 2a368.188 368.188 0 0 1-8 24 1146.167 1146.167 0 0 0 20 61c-2.149 1.164-4.315 2.33-6.5 3.5l-17-52a2364.823 2364.823 0 0 1-17 52 21.458 21.458 0 0 1-6.5-3.5 4062.482 4062.482 0 0 1 16-46.5 609.273 609.273 0 0 1-14 46c1.333 1.333 2.667 1.333 4 0a5918.795 5918.795 0 0 1 17-51.5 40.93 40.93 0 0 0-3-7.5 166.255 166.255 0 0 0-9-27c-1.667 1.667-2.667 1.333-3-1a880.697 880.697 0 0 1-12.5-38l-1-17c-4.737-4.175-4.237-7.508 1.5-10 1.874-.11 3.374.556 4.5 2 .711 2.4.544 4.732-.5 7a57.483 57.483 0 0 1 8 10 273.325 273.325 0 0 1 10 35z"/><path style="opacity:1" fill="#fefffe" d="M95.5 10.5c4.789 1.7 5.122 4.033 1 7-3.533-1.92-3.867-4.254-1-7zM150.5 10.5c3.711 2.042 3.878 4.375.5 7-4.453-2.155-4.62-4.488-.5-7z"/><path style="opacity:1" d="M45.5 97.5c-1.983.117-3.65-.55-5-2-.713-2.867-2.046-5.367-4-7.5.454-1.622 1.454-2.788 3-3.5a111.126 111.126 0 0 0 1-21c-5.344-.166-10.677 0-16 .5-1.497 2.207-3.497 2.874-6 2a32.787 32.787 0 0 1-5.5-3.5c-.595-1.399-.428-2.732.5-4 2.57-1.112 4.902-2.445 7-4 2.69.045 4.023 1.379 4 4h16v-16a36.874 36.874 0 0 0-12 1c-.67 1.446-1.838 2.112-3.5 2-9.92-3.384-9.92-7.05 0-11 1.662-.112 2.83.554 3.5 2a36.874 36.874 0 0 0 12 1c.752-5.76-.248-11.093-3-16 4.399-11.774 9.066-11.94 14-.5-.45 2.283-1.783 3.783-4 4.5a36.874 36.874 0 0 0-1 12c4.678.166 9.345 0 14-.5 1.172-2.055 2.839-2.722 5-2a10.505 10.505 0 0 0 5 3.5c1.114 1.223 1.28 2.556.5 4a2152.018 2152.018 0 0 1-7 5c-2.54-.706-3.707-2.373-3.5-5h-14v16c7.435.735 14.435-.265 21-3 10.667 4 10.667 8 0 12-1.897-.228-3.23-1.228-4-3a73.123 73.123 0 0 0-17-1c-.33 7.032.003 14.032 1 21 1.772.77 2.772 2.103 3 4a82.635 82.635 0 0 0-5 9z"/><path style="opacity:1" fill="#fefffe" d="M97.5 19.5c1.517.01 2.684.677 3.5 2a69.162 69.162 0 0 0 4.5 6.5 35.307 35.307 0 0 1-8.5 3.5 71.586 71.586 0 0 1 .5-12zM148.5 19.5c1.193.47 1.86 1.47 2 3 .832 2.982.999 5.982.5 9a35.312 35.312 0 0 1-8.5-3.5 72.475 72.475 0 0 0 6-8.5zM106.5 29.5c3.302 9.569 6.635 19.236 10 29-3.356 2.374-6.856 3.374-10.5 3a205.755 205.755 0 0 1-8.5-29 54.397 54.397 0 0 0 9-3zM134.5 47.5c1.663-1.938 2.329-4.272 2-7 1.574-1.602 2.241-3.602 2-6 1.293-1.342 2.126-3.009 2.5-5 3.599 1.31 7.099 2.81 10.5 4.5A723.54 723.54 0 0 1 141 62.5a39.442 39.442 0 0 1-9.5-4 34.336 34.336 0 0 0 3-11z"/><path style="opacity:1" d="M138.5 34.5c.241 2.398-.426 4.398-2 6-.241-2.398.426-4.398 2-6zM136.5 40.5c.329 2.728-.337 5.062-2 7-.09-2.652.576-4.986 2-7z"/><path style="opacity:1" fill="#fefffe" d="m118.5 63.5 1 8a53.102 53.102 0 0 0-8 2l-2-1a101.29 101.29 0 0 0-3-7.5 89.98 89.98 0 0 1 9-3.5c1.239.442 2.239 1.11 3 2zM130.5 61.5l10 2a81.798 81.798 0 0 1-2 10 66.187 66.187 0 0 1-11-2.5 31.558 31.558 0 0 0 3-9.5zM116.5 73.5c6.067 17.16 11.9 34.494 17.5 52a772.32 772.32 0 0 1 10.5 37c-1.322.17-2.489-.163-3.5-1A9337.524 9337.524 0 0 0 113.5 75c1.237-.232 2.237-.732 3-1.5zM130.5 73.5a16.314 16.314 0 0 1 4 2 851.706 851.706 0 0 0-7.5 22 23.672 23.672 0 0 0-2.5-6 285.225 285.225 0 0 0 6-18z"/><path style="opacity:1" d="M45.5 97.5c1.499 4.407 3.832 8.574 7 12.5-3.517 7.014-4.85 14.514-4 22.5 5.265.099 8.098 2.765 8.5 8a20.477 20.477 0 0 1 5.5 3 16.1 16.1 0 0 0 2.5 5c.75 1.135.583 2.135-.5 3-2.098.457-3.764 1.457-5 3-3.108-.125-5.108 1.208-6 4-3.08 3.15-5.413 6.817-7 11-.982.641-1.982 1.307-3 2-.788-1.27-1.788-2.27-3-3 .073-1.527-.594-2.527-2-3 .27-1.88-.396-3.213-2-4 .13-.876-.203-1.543-1-2-2.656-.46-4.99-1.46-7-3-.525-4.033-1.858-7.7-4-11a98.905 98.905 0 0 0 4-8.5l9-4.5a37.89 37.89 0 0 0 2-11.5 29.376 29.376 0 0 0-4-11c.334-3.17 2-5.337 5-6.5.952-1.545 1.285-3.212 1-5 1.599.268 2.932-.066 4-1zM120.5 102.5c-.561 4.676-1.894 9.009-4 13 .561-4.676 1.894-9.009 4-13z"/><path style="opacity:1" fill="#fefffe" d="M120.5 102.5a40.93 40.93 0 0 1 3 7.5 5918.795 5918.795 0 0 0-17 51.5c-1.333 1.333-2.667 1.333-4 0a609.273 609.273 0 0 0 14-46c2.106-3.991 3.439-8.324 4-13zM-.5 131.5c6.76 40.428 30.093 65.428 70 75h-70v-75zM165.5 133.5v73h-70c38.669-9.669 62.003-34.002 70-73zM24.5 145.5c2.142 3.3 3.475 6.967 4 11-2.101-3.297-3.435-6.963-4-11zM59.5 154.5a35.377 35.377 0 0 1-6 4c.892-2.792 2.892-4.125 6-4zM28.5 156.5c2.01 1.54 4.344 2.54 7 3 .797.457 1.13 1.124 1 2-2.304-.663-4.637-1.33-7-2-.886-.825-1.219-1.825-1-3zM53.5 158.5c-1.587 4.183-3.92 7.85-7 11 1.587-4.183 3.92-7.85 7-11zM36.5 161.5c1.604.787 2.27 2.12 2 4-1.174-1.014-1.84-2.347-2-4zM38.5 165.5c1.406.473 2.073 1.473 2 3-1.406-.473-2.073-1.473-2-3zM40.5 168.5c1.212.73 2.212 1.73 3 3a184.223 184.223 0 0 1 3-2c-2.566 5.411-4.566 5.078-6-1zM56.5 183.5a89.945 89.945 0 0 1-4-7.5 20.641 20.641 0 0 0-6-2 12.494 12.494 0 0 1 7 0 22.154 22.154 0 0 1 3 9.5zM56.5 183.5c1.431 1.28 2.098 2.947 2 5-1.431-1.28-2.098-2.947-2-5z"/><path style="opacity:1" fill="#fefffe" d="M58.5 188.5a30.71 30.71 0 0 1 4.5 12c-2.385-3.653-3.885-7.653-4.5-12z"/></svg>
